svg/gesture_tap_box.svg

<svg xmlns="http://www.w3.org/2000/svg" viewBox="0 0 24 24"><path d="M20 2H4c-1.11 0-2 .89-2 2v16c0 1.11.89 2 2 2h16c1.11 0 2-.89 2-2V4c0-1.11-.89-2-2-2m-9 2c2.21 0 4 1.79 4 4 0 1.5-.8 2.77-2 3.46v-1.22c.61-.55 1-1.35 1-2.24 0-1.66-1.34-3-3-3S8 6.34 8 8c0 .89.39 1.69 1 2.24v1.22C7.8 10.77 7 9.5 7 8c0-2.21 1.79-4 4-4m7 14.5c-.03.82-.68 1.47-1.5 1.5H11c-.38 0-.74-.15-1-.43l-4-4.2.74-.77c.19-.21.46-.32.76-.32h.2L10 16V8c0-.55.45-1 1-1s1 .45 1 1v4.47l1.21.13 3.94 2.19c.53.24.85.77.85 1.35z"/></svg>

<?xml version="1.0" encoding="UTF-8"?><!DOCTYPE svg PUBLIC "-//W3C//DTD SVG 1.1//EN" "http://www.w3.org/Graphics/SVG/1.1/DTD/svg11.dtd"><svg xmlns="http://www.w3.org/2000/svg" xmlns:xlink="http://www.w3.org/1999/xlink" version="1.1" id="mdi-gesture-tap-box" width="24" height="24" viewBox="0 0 24 24"><path d="M20 2H4C2.89 2 2 2.89 2 4V20C2 21.11 2.89 22 4 22H20C21.11 22 22 21.11 22 20V4C22 2.89 21.11 2 20 2M11 4C13.21 4 15 5.79 15 8C15 9.5 14.2 10.77 13 11.46V10.24C13.61 9.69 14 8.89 14 8C14 6.34 12.66 5 11 5S8 6.34 8 8C8 8.89 8.39 9.69 9 10.24V11.46C7.8 10.77 7 9.5 7 8C7 5.79 8.79 4 11 4M18 18.5C17.97 19.32 17.32 19.97 16.5 20H11C10.62 20 10.26 19.85 10 19.57L6 15.37L6.74 14.6C6.93 14.39 7.2 14.28 7.5 14.28H7.7L10 16V8C10 7.45 10.45 7 11 7S12 7.45 12 8V12.47L13.21 12.6L17.15 14.79C17.68 15.03 18 15.56 18 16.14V18.5Z" /></svg>
